X:471
T:Skylark's Ascension, The
R:jig
C:Archibald Lindsay, South Uist, Scotland
Z:hn-jig-471
M:6/8
L:1/8
K:A
~a3 faa | fee c2B | ~A3 A2B | cee e2c |
f3 fec | eff c2B | Aaa fec | e3 e2f :|
|: ~a3 afe | ~f3 f2e | c3 cef | ecB c2e |
~a3 afe | ~f3 f2e | Aaa fec | e3 e2f :|2 e3 e2a ||
|: ~A3 A2c | ecB c2e | ~f3 f2e | cfe c2B |
~A3 A2B | cee c2B | Aaa fec |1 e3 e2a :|2 e3 e2f ||
|: aAa fdf | eca c3 | dff cee | Acc B2e |
[1 aAa fdf | eca c2B | Aaa fec | e3 e2f :|
[2 a2f ecB | cfe c2B | Aaa fec | e3 e2f ||

